X:1
T: Bonny Annie
C:
R:Reel
Q: 232
K:Am
M:4/4
L:1/8
|:c|A1/2A1/2A AG EG Ac|A1/2A1/2A AB cd ed|cB cA EA Ac|A1/2A1/2A e^g aA Ac|
A1/2A1/2A AG EG Ac|A1/2A1/2A AB cd ed|cB cA EA Ac|A1/2A1/2A e^g aA Ag|
e1/2f1/2g cg ec gc|BG dG Bc df|e1/2f1/2g cg ec gc|ge de cA Ag|
ag ea ga ed|cA Gc Ec Gc|Ac GA cd ea|ge de cA A:|
